Costumes/B-story-1.svg

<?xml version="1.0" encoding="utf-8"?>
<!-- Generator: Adobe Illustrator 18.0.0, SVG Export Plug-In . SVG Version: 6.00 Build 0)  -->
<!DOCTYPE svg PUBLIC "-//W3C//DTD SVG 1.1//EN" "http://www.w3.org/Graphics/SVG/1.1/DTD/svg11.dtd">
<svg version="1.1" id="Layer_2" xmlns="http://www.w3.org/2000/svg" xmlns:xlink="http://www.w3.org/1999/xlink" x="0px" y="0px"
	 viewBox="0 0 40 51.5" enable-background="new 0 0 40 51.5" xml:space="preserve">
<g>
	<path fill="#53AD4E" d="M38.9,28.4c-0.2-0.4-0.3-0.8-0.5-1.1c-0.5-0.6-1-1.1-1.5-1.6c-1-0.8-1.9-1.7-3-2.4c-0.9-0.6-2-1.1-3.1-1.6
		c0.5-0.2,0.8-0.5,1.2-0.7c3.5-1.5,4.6-5.6,4.7-8.5c0-1-0.3-1.9-0.4-2.9c-0.1-0.7-0.3-1.4-0.5-2.1c-0.5-1.8-1.9-2.9-3.2-4.1
		c-0.8-0.7-1.5-1.5-2.5-1.9c-2.8-1.1-5.7-1.7-8.7-1.5c-1.4,0.1-2.8,0-4.3,0c-2.2,0-4.3,0-6.5,0c-1,0-2,0.2-3,0.2
		c-1.2,0-2.3-0.1-3.5,0c-0.4,0-1,0.1-1.2,0.4C2.1,1.8,1.4,2.9,0.5,4c-0.9,1.2-0.7,2,0.8,2.4c0.4,0.1,0.9,0.2,1.3,0.3
		c0.6,0.1,1.1,0.4,1,1.2c0,1.6,0,3.2,0,4.7c0,3.6-0.1,7.2-0.2,10.8c-0.1,2,0.5,4-0.3,6c0,0.1,0,0.3,0,0.4c-0.1,2.3-0.1,4.7-0.1,7
		c0,1.4,0,2.8-0.1,4.2c-0.1,1.7-0.2,3.3-0.3,5c0,0.2-0.2,0.5-0.4,0.7c-0.6,0.8-1.3,1.6-1.8,2.5c-0.3,0.5-0.3,1.1-0.2,1.6
		c0,0.2,0.8,0.2,1.2,0.3c0.5,0.1,1,0.1,1.5,0.1c4.5,0.1,9,0.2,13.5,0.3c2.6,0,5.2,0.2,7.8,0c1.8-0.1,3.6-0.6,5.4-1.2
		c2.2-0.7,3.8-2.4,5.2-4.1c0.7-0.9,1.8-1.7,2.3-2.7c1.1-2,2.1-4.2,2.5-6.5C40.1,34.1,40.3,31.2,38.9,28.4z M16.6,2.8
		c2.7-0.1,5.5-0.1,8.2,0.5C27,3.7,28.6,5,29.7,6.9c1.3,2.3,1.8,4.8,1.6,7.4c-0.1,1.5-0.9,2.8-1.8,4c-0.3,0.4-1.1,0.5-1.6,0.8
		c-0.7,0.3-1.4,0.7-2.1,1.1c1.9-2.9,1.6-5.8,0.8-8.8c-0.7-2.8-2.5-4.6-5.3-5.2c-2-0.4-4-0.9-6-0.6c-0.2,0-0.5,0-0.7,0
		C14.2,3.7,14.8,2.9,16.6,2.8z M14.5,27.4c0-0.1,0-0.2,0-0.4c3.7,0,7.3,0.3,10.8,1.2c1.6,0.5,2.6,1.7,3.5,3c1.4,2,1.7,4.3,1.7,6.6
		c0,2.1-1.5,5.3-4.1,6.2c-2.5,0.8-5,1-7.6,0.8c-1.1-0.1-2.2-0.1-3.3-0.2c-0.8-0.1-1.1-0.7-1.1-1.5c0-1.9,0.1-3.7,0.1-5.6
		C14.6,34.2,14.6,30.8,14.5,27.4z M14.9,25.9c0-1.8,1.6-2.5,2.3-3.9c0.3,0.3,0.4,0.6,0.6,0.7c-0.5,0.6-1,1.1-1.4,1.7
		c-0.4,0.5-0.8,1.1-1.2,1.7C15.1,26,15,26,14.9,25.9z M15.4,23.1c-0.2,0.3-0.5,0.5-0.9,1v-18c0.7,0,1.3,0.1,2,0.1
		c1.6,0.2,3.3,0.3,4.9,0.7c2.9,0.8,4.4,2.9,5,5.7c0.2,1,0.3,1.9,0.3,2.9c0,2-0.6,3.5-2.5,4.6c-0.9,0.5-1.7,0.5-2.6,0.6
		c-0.4,0.1-0.9,0.1-1.3,0C18.1,20.6,16.6,21.6,15.4,23.1z M1.2,5.7C1.1,5.7,0.9,5.6,0.8,5.5C0.9,5.2,0.9,4.9,1,4.6
		c0.7-1,1.5-2,2.2-3c0.4,0.4,0.4,0.8,0,1.3C2.8,3.5,2.4,4.1,2,4.7C1.8,5.1,1.5,5.4,1.2,5.7z M3.7,43.7c0-1-0.1-2.1-0.1-3.1
		c0-1.1,0-2.2,0.1-3.4c0.1-1.9,0.2-3.9,0.2-5.8c0.1-1.2,0.2-2.3,0.2-3.5c0-0.3,0-0.5,0.1-0.8c0-2.6,0.1-5.1,0.1-7.6
		c0-3.5-0.1-7.1-0.2-10.7c0-0.4,0.1-0.7,0.2-1.1c0.2-0.4-0.2-1.1-0.8-1.4C3.1,6.1,2.6,5.9,2.1,5.7C2.7,4.8,3.3,4,3.8,3.3
		c0.3-0.4,0.6-0.9,1.3-0.7C5.9,2.8,6.8,2.9,7,3.8c0.3,1,0.5,2.1,0.5,3.2c0.1,2.8,0.1,5.7,0,8.5c0,2.2-0.3,4.4-0.3,6.6
		c0,3.3,0.2,6.7,0.2,10c0,2.6-0.2,5.2-0.2,7.8c0,1.5,0,2.9-0.1,4.3c0,0.2-0.2,0.5-0.3,0.5c-0.3,0.2-0.6,0.3-1,0.3
		c-0.8,0.1-1.7,0.2-2.5,0.3C3.5,44.9,3.6,44.3,3.7,43.7z M0.7,50.3c-0.1,0-0.1-0.1-0.2-0.1C1.3,49,2.1,47.9,3,46.7
		c0.1,0,0.2,0.1,0.3,0.2C2.9,48.3,1.7,49.3,0.7,50.3z M31.2,48.6c-2.1,1.3-4.4,2.1-6.9,2.2C22.5,51,20.6,51,18.8,51
		c-4.8-0.1-9.6-0.2-14.4-0.3c-1,0-2-0.1-2.8-0.2c0.7-0.9,1.5-1.8,2.2-2.7c0.2-0.2,0.5-0.2,0.8-0.2c4,0.1,8,0.2,12,0.2
		c4.2,0,8.4-0.1,12.5-0.4c1.3-0.1,2.6-0.7,3.9-1.1c0.2-0.1,0.3-0.2,0.5-0.3c0.1,0.1,0.2,0.2,0.2,0.2C32.9,47.1,32.1,48,31.2,48.6z
		 M34.4,36.5c-0.6,2.5-1.7,4.8-4.1,6.2c-0.3,0.2-0.6,0.3-1,0.5c0.4-1.1,0.8-2.2,1.3-3.2c0.6-1.3,0.7-2.6,0.4-4
		c-0.2-0.8-0.2-1.6-0.5-2.4c-0.4-1.2-0.9-2.3-1.6-3.4c-1.4-2.1-3.5-2.9-5.9-3.2c-2.1-0.2-4.2-0.5-6.3-0.7c-0.2,0-0.5,0-1-0.1
		c1.1-1.2,2-2.2,2.9-3.2c0.1-0.1,0.5-0.2,0.7-0.1c1.6,0.1,3.2,0.2,4.8,0.4c1.6,0.2,3.1,0.5,4.3,1.6c1.8,1.6,3.5,3.2,4.9,5.1
		C34.9,32,34.9,34.2,34.4,36.5z"/>
	<path fill="#FFFFFF" d="M3.2,2.9C2.8,3.5,2.4,4.1,2,4.7c-0.2,0.4-0.5,0.7-0.8,1C1.1,5.7,0.9,5.6,0.8,5.5C0.9,5.2,0.9,4.9,1,4.6
		c0.7-1,1.5-2,2.2-3C3.6,2,3.6,2.4,3.2,2.9z"/>
	<path fill="#FFFFFF" d="M3.2,46.9c-0.4,1.5-1.5,2.5-2.6,3.5c-0.1,0-0.1-0.1-0.2-0.1C1.3,49,2.1,47.9,3,46.7
		C3.1,46.7,3.1,46.8,3.2,46.9z"/>
	<path fill="#FFFFFF" d="M33.8,46.3c-0.9,0.8-1.6,1.7-2.6,2.3c-2.1,1.3-4.4,2.1-6.9,2.2C22.5,51,20.6,51,18.8,51
		c-4.8-0.1-9.6-0.2-14.4-0.3c-1,0-2-0.1-2.8-0.2c0.7-0.9,1.5-1.8,2.2-2.7c0.2-0.2,0.5-0.2,0.8-0.2c4,0.1,8,0.2,12,0.2
		c4.2,0,8.4-0.1,12.5-0.4c1.3-0.1,2.6-0.7,3.9-1.1c0.2-0.1,0.3-0.2,0.5-0.3C33.6,46.1,33.7,46.2,33.8,46.3z"/>
	<path fill="#FFFFFF" d="M17.8,22.7c-0.5,0.6-1,1.1-1.4,1.7c-0.4,0.5-0.8,1.1-1.2,1.7c-0.1,0-0.2-0.1-0.2-0.1c0-1.8,1.6-2.5,2.3-3.9
		C17.5,22.3,17.7,22.5,17.8,22.7z"/>
	<path fill="#FFFFFF" d="M31.2,14.4c-0.1,1.5-0.9,2.8-1.8,4c-0.3,0.4-1.1,0.5-1.6,0.8c-0.7,0.3-1.4,0.7-2.1,1.1
		c1.9-2.9,1.6-5.8,0.8-8.8c-0.7-2.8-2.5-4.6-5.3-5.2c-2-0.4-4-0.9-6-0.6c-0.2,0-0.5,0-0.7,0c-0.3-1.9,0.2-2.8,2.1-2.8
		c2.7-0.1,5.5-0.1,8.2,0.5C27,3.7,28.6,5,29.7,6.9C30.9,9.2,31.5,11.7,31.2,14.4z"/>
	<path fill="#FFFFFF" d="M34.4,36.5c-0.6,2.5-1.7,4.8-4.1,6.2c-0.3,0.2-0.6,0.3-1,0.5c0.4-1.1,0.8-2.2,1.3-3.2
		c0.6-1.3,0.7-2.6,0.4-4c-0.2-0.8-0.2-1.6-0.5-2.4c-0.4-1.2-0.9-2.3-1.6-3.4c-1.4-2.1-3.5-2.9-5.9-3.2c-2.1-0.2-4.2-0.5-6.3-0.7
		c-0.2,0-0.5,0-1-0.1c1.1-1.2,2-2.2,2.9-3.2c0.1-0.1,0.5-0.2,0.7-0.1c1.6,0.1,3.2,0.2,4.8,0.4c1.6,0.2,3.1,0.5,4.3,1.6
		c1.8,1.6,3.5,3.2,4.9,5.1C34.9,32,34.9,34.2,34.4,36.5z"/>
	<path fill="#FFFFFF" d="M7.5,15.5c0,2.2-0.3,4.4-0.3,6.6c0,3.3,0.2,6.7,0.2,10c0,2.6-0.2,5.2-0.2,7.8c0,1.5,0,2.9-0.1,4.3
		c0,0.2-0.2,0.5-0.3,0.5c-0.3,0.2-0.6,0.3-1,0.3c-0.8,0.1-1.7,0.2-2.5,0.3c0.1-0.5,0.3-1.1,0.3-1.7c0-1-0.1-2.1-0.1-3.1
		c0-1.1,0-2.2,0.1-3.4c0.1-1.9,0.2-3.9,0.2-5.8c0.1-1.2,0.2-2.3,0.2-3.5c0-0.3,0-0.5,0.1-0.8c0-2.6,0.1-5.1,0.1-7.6
		c0-3.5-0.1-7.1-0.2-10.7c0-0.4,0.1-0.7,0.2-1.1c0.2-0.4-0.2-1.1-0.8-1.4C3.1,6.1,2.6,5.9,2.1,5.7C2.7,4.8,3.3,4,3.8,3.3
		c0.3-0.4,0.6-0.9,1.3-0.7C5.9,2.8,6.8,2.9,7,3.8c0.3,1,0.5,2.1,0.5,3.2C7.6,9.8,7.6,12.7,7.5,15.5z"/>
</g>
</svg>

<?xml version="1.0" encoding="UTF-8" standalone="no"?>
<!-- Generator: Adobe Illustrator 18.0.0, SVG Export Plug-In . SVG Version: 6.00 Build 0)  -->

<svg
   version="1.1"
   id="Layer_2"
   x="0px"
   y="0px"
   viewBox="0 0 40.014526 51.626995"
   enable-background="new 0 0 40 51.5"
   xml:space="preserve"
   sodipodi:docname="B-story-1.svg"
   width="40.014526"
   height="51.626995"
   xmlns:inkscape="http://www.inkscape.org/namespaces/inkscape"
   xmlns:sodipodi="http://sodipodi.sourceforge.net/DTD/sodipodi-0.dtd"
   xmlns="http://www.w3.org/2000/svg"
   xmlns:svg="http://www.w3.org/2000/svg"><defs
   id="defs23" /><sodipodi:namedview
   id="namedview21"
   pagecolor="#ffffff"
   bordercolor="#000000"
   borderopacity="0.25"
   inkscape:showpageshadow="2"
   inkscape:pageopacity="0.0"
   inkscape:pagecheckerboard="0"
   inkscape:deskcolor="#d1d1d1" />
<g
   id="g18"
   transform="translate(0.03929155,0.03810756)">
	<path
   fill="#53ad4e"
   d="m 38.9,28.4 c -0.2,-0.4 -0.3,-0.8 -0.5,-1.1 -0.5,-0.6 -1,-1.1 -1.5,-1.6 -1,-0.8 -1.9,-1.7 -3,-2.4 -0.9,-0.6 -2,-1.1 -3.1,-1.6 0.5,-0.2 0.8,-0.5 1.2,-0.7 3.5,-1.5 4.6,-5.6 4.7,-8.5 0,-1 -0.3,-1.9 -0.4,-2.9 C 36.2,8.9 36,8.2 35.8,7.5 35.3,5.7 33.9,4.6 32.6,3.4 31.8,2.7 31.1,1.9 30.1,1.5 27.3,0.4 24.4,-0.2 21.4,0 20,0.1 18.6,0 17.1,0 14.9,0 12.8,0 10.6,0 9.6,0 8.6,0.2 7.6,0.2 6.4,0.2 5.3,0.1 4.1,0.2 3.7,0.2 3.1,0.3 2.9,0.6 2.1,1.8 1.4,2.9 0.5,4 c -0.9,1.2 -0.7,2 0.8,2.4 0.4,0.1 0.9,0.2 1.3,0.3 0.6,0.1 1.1,0.4 1,1.2 0,1.6 0,3.2 0,4.7 0,3.6 -0.1,7.2 -0.2,10.8 -0.1,2 0.5,4 -0.3,6 0,0.1 0,0.3 0,0.4 -0.1,2.3 -0.1,4.7 -0.1,7 0,1.4 0,2.8 -0.1,4.2 -0.1,1.7 -0.2,3.3 -0.3,5 0,0.2 -0.2,0.5 -0.4,0.7 -0.6,0.8 -1.3,1.6 -1.8,2.5 -0.3,0.5 -0.3,1.1 -0.2,1.6 0,0.2 0.8,0.2 1.2,0.3 0.5,0.1 1,0.1 1.5,0.1 4.5,0.1 9,0.2 13.5,0.3 2.6,0 5.2,0.2 7.8,0 1.8,-0.1 3.6,-0.6 5.4,-1.2 2.2,-0.7 3.8,-2.4 5.2,-4.1 0.7,-0.9 1.8,-1.7 2.3,-2.7 1.1,-2 2.1,-4.2 2.5,-6.5 0.5,-2.9 0.7,-5.8 -0.7,-8.6 z M 16.6,2.8 c 2.7,-0.1 5.5,-0.1 8.2,0.5 2.2,0.4 3.8,1.7 4.9,3.6 1.3,2.3 1.8,4.8 1.6,7.4 -0.1,1.5 -0.9,2.8 -1.8,4 -0.3,0.4 -1.1,0.5 -1.6,0.8 -0.7,0.3 -1.4,0.7 -2.1,1.1 1.9,-2.9 1.6,-5.8 0.8,-8.8 -0.7,-2.8 -2.5,-4.6 -5.3,-5.2 -2,-0.4 -4,-0.9 -6,-0.6 -0.2,0 -0.5,0 -0.7,0 -0.4,-1.9 0.2,-2.7 2,-2.8 z m -2.1,24.6 c 0,-0.1 0,-0.2 0,-0.4 3.7,0 7.3,0.3 10.8,1.2 1.6,0.5 2.6,1.7 3.5,3 1.4,2 1.7,4.3 1.7,6.6 0,2.1 -1.5,5.3 -4.1,6.2 -2.5,0.8 -5,1 -7.6,0.8 -1.1,-0.1 -2.2,-0.1 -3.3,-0.2 -0.8,-0.1 -1.1,-0.7 -1.1,-1.5 0,-1.9 0.1,-3.7 0.1,-5.6 0.1,-3.3 0.1,-6.7 0,-10.1 z m 0.4,-1.5 c 0,-1.8 1.6,-2.5 2.3,-3.9 0.3,0.3 0.4,0.6 0.6,0.7 -0.5,0.6 -1,1.1 -1.4,1.7 -0.4,0.5 -0.8,1.1 -1.2,1.7 C 15.1,26 15,26 14.9,25.9 Z m 0.5,-2.8 c -0.2,0.3 -0.5,0.5 -0.9,1 v -18 c 0.7,0 1.3,0.1 2,0.1 1.6,0.2 3.3,0.3 4.9,0.7 2.9,0.8 4.4,2.9 5,5.7 0.2,1 0.3,1.9 0.3,2.9 0,2 -0.6,3.5 -2.5,4.6 -0.9,0.5 -1.7,0.5 -2.6,0.6 -0.4,0.1 -0.9,0.1 -1.3,0 -2.2,-0.1 -3.7,0.9 -4.9,2.4 z M 1.2,5.7 C 1.1,5.7 0.9,5.6 0.8,5.5 0.9,5.2 0.9,4.9 1,4.6 1.7,3.6 2.5,2.6 3.2,1.6 3.6,2 3.6,2.4 3.2,2.9 2.8,3.5 2.4,4.1 2,4.7 1.8,5.1 1.5,5.4 1.2,5.7 Z m 2.5,38 c 0,-1 -0.1,-2.1 -0.1,-3.1 0,-1.1 0,-2.2 0.1,-3.4 0.1,-1.9 0.2,-3.9 0.2,-5.8 0.1,-1.2 0.2,-2.3 0.2,-3.5 0,-0.3 0,-0.5 0.1,-0.8 C 4.2,24.5 4.3,22 4.3,19.5 4.3,16 4.2,12.4 4.1,8.8 4.1,8.4 4.2,8.1 4.3,7.7 4.5,7.3 4.1,6.6 3.5,6.3 3.1,6.1 2.6,5.9 2.1,5.7 2.7,4.8 3.3,4 3.8,3.3 4.1,2.9 4.4,2.4 5.1,2.6 5.9,2.8 6.8,2.9 7,3.8 c 0.3,1 0.5,2.1 0.5,3.2 0.1,2.8 0.1,5.7 0,8.5 0,2.2 -0.3,4.4 -0.3,6.6 0,3.3 0.2,6.7 0.2,10 0,2.6 -0.2,5.2 -0.2,7.8 0,1.5 0,2.9 -0.1,4.3 0,0.2 -0.2,0.5 -0.3,0.5 -0.3,0.2 -0.6,0.3 -1,0.3 -0.8,0.1 -1.7,0.2 -2.5,0.3 0.2,-0.4 0.3,-1 0.4,-1.6 z m -3,6.6 C 0.6,50.3 0.6,50.2 0.5,50.2 1.3,49 2.1,47.9 3,46.7 c 0.1,0 0.2,0.1 0.3,0.2 -0.4,1.4 -1.6,2.4 -2.6,3.4 z m 30.5,-1.7 c -2.1,1.3 -4.4,2.1 -6.9,2.2 C 22.5,51 20.6,51 18.8,51 14,50.9 9.2,50.8 4.4,50.7 c -1,0 -2,-0.1 -2.8,-0.2 0.7,-0.9 1.5,-1.8 2.2,-2.7 0.2,-0.2 0.5,-0.2 0.8,-0.2 4,0.1 8,0.2 12,0.2 4.2,0 8.4,-0.1 12.5,-0.4 1.3,-0.1 2.6,-0.7 3.9,-1.1 0.2,-0.1 0.3,-0.2 0.5,-0.3 0.1,0.1 0.2,0.2 0.2,0.2 -0.8,0.9 -1.6,1.8 -2.5,2.4 z m 3.2,-12.1 c -0.6,2.5 -1.7,4.8 -4.1,6.2 -0.3,0.2 -0.6,0.3 -1,0.5 0.4,-1.1 0.8,-2.2 1.3,-3.2 0.6,-1.3 0.7,-2.6 0.4,-4 -0.2,-0.8 -0.2,-1.6 -0.5,-2.4 -0.4,-1.2 -0.9,-2.3 -1.6,-3.4 -1.4,-2.1 -3.5,-2.9 -5.9,-3.2 -2.1,-0.2 -4.2,-0.5 -6.3,-0.7 -0.2,0 -0.5,0 -1,-0.1 1.1,-1.2 2,-2.2 2.9,-3.2 0.1,-0.1 0.5,-0.2 0.7,-0.1 1.6,0.1 3.2,0.2 4.8,0.4 1.6,0.2 3.1,0.5 4.3,1.6 1.8,1.6 3.5,3.2 4.9,5.1 1.6,2 1.6,4.2 1.1,6.5 z"
   id="path2" />
	<path
   fill="#ffffff"
   d="M 3.2,2.9 C 2.8,3.5 2.4,4.1 2,4.7 1.8,5.1 1.5,5.4 1.2,5.7 1.1,5.7 0.9,5.6 0.8,5.5 0.9,5.2 0.9,4.9 1,4.6 c 0.7,-1 1.5,-2 2.2,-3 0.4,0.4 0.4,0.8 0,1.3 z"
   id="path4" />
	<path
   fill="#ffffff"
   d="M 3.2,46.9 C 2.8,48.4 1.7,49.4 0.6,50.4 0.5,50.4 0.5,50.3 0.4,50.3 1.3,49 2.1,47.9 3,46.7 c 0.1,0 0.1,0.1 0.2,0.2 z"
   id="path6" />
	<path
   fill="#ffffff"
   d="m 33.8,46.3 c -0.9,0.8 -1.6,1.7 -2.6,2.3 -2.1,1.3 -4.4,2.1 -6.9,2.2 C 22.5,51 20.6,51 18.8,51 14,50.9 9.2,50.8 4.4,50.7 c -1,0 -2,-0.1 -2.8,-0.2 0.7,-0.9 1.5,-1.8 2.2,-2.7 0.2,-0.2 0.5,-0.2 0.8,-0.2 4,0.1 8,0.2 12,0.2 4.2,0 8.4,-0.1 12.5,-0.4 1.3,-0.1 2.6,-0.7 3.9,-1.1 0.2,-0.1 0.3,-0.2 0.5,-0.3 0.1,0.1 0.2,0.2 0.3,0.3 z"
   id="path8" />
	<path
   fill="#ffffff"
   d="m 17.8,22.7 c -0.5,0.6 -1,1.1 -1.4,1.7 -0.4,0.5 -0.8,1.1 -1.2,1.7 C 15.1,26.1 15,26 15,26 c 0,-1.8 1.6,-2.5 2.3,-3.9 0.2,0.2 0.4,0.4 0.5,0.6 z"
   id="path10" />
	<path
   fill="#ffffff"
   d="m 31.2,14.4 c -0.1,1.5 -0.9,2.8 -1.8,4 -0.3,0.4 -1.1,0.5 -1.6,0.8 -0.7,0.3 -1.4,0.7 -2.1,1.1 1.9,-2.9 1.6,-5.8 0.8,-8.8 C 25.8,8.7 24,6.9 21.2,6.3 c -2,-0.4 -4,-0.9 -6,-0.6 -0.2,0 -0.5,0 -0.7,0 -0.3,-1.9 0.2,-2.8 2.1,-2.8 2.7,-0.1 5.5,-0.1 8.2,0.5 2.2,0.3 3.8,1.6 4.9,3.5 1.2,2.3 1.8,4.8 1.5,7.5 z"
   id="path12" />
	<path
   fill="#ffffff"
   d="m 34.4,36.5 c -0.6,2.5 -1.7,4.8 -4.1,6.2 -0.3,0.2 -0.6,0.3 -1,0.5 0.4,-1.1 0.8,-2.2 1.3,-3.2 0.6,-1.3 0.7,-2.6 0.4,-4 -0.2,-0.8 -0.2,-1.6 -0.5,-2.4 -0.4,-1.2 -0.9,-2.3 -1.6,-3.4 -1.4,-2.1 -3.5,-2.9 -5.9,-3.2 -2.1,-0.2 -4.2,-0.5 -6.3,-0.7 -0.2,0 -0.5,0 -1,-0.1 1.1,-1.2 2,-2.2 2.9,-3.2 0.1,-0.1 0.5,-0.2 0.7,-0.1 1.6,0.1 3.2,0.2 4.8,0.4 1.6,0.2 3.1,0.5 4.3,1.6 1.8,1.6 3.5,3.2 4.9,5.1 1.6,2 1.6,4.2 1.1,6.5 z"
   id="path14" />
	<path
   fill="#ffffff"
   d="m 7.5,15.5 c 0,2.2 -0.3,4.4 -0.3,6.6 0,3.3 0.2,6.7 0.2,10 0,2.6 -0.2,5.2 -0.2,7.8 0,1.5 0,2.9 -0.1,4.3 0,0.2 -0.2,0.5 -0.3,0.5 -0.3,0.2 -0.6,0.3 -1,0.3 -0.8,0.1 -1.7,0.2 -2.5,0.3 0.1,-0.5 0.3,-1.1 0.3,-1.7 0,-1 -0.1,-2.1 -0.1,-3.1 0,-1.1 0,-2.2 0.1,-3.4 C 3.7,35.2 3.8,33.2 3.8,31.3 3.9,30.1 4,29 4,27.8 4,27.5 4,27.3 4.1,27 4.1,24.4 4.2,21.9 4.2,19.4 4.2,15.9 4.1,12.3 4,8.7 4,8.3 4.1,8 4.2,7.6 4.4,7.2 4,6.5 3.4,6.2 3.1,6.1 2.6,5.9 2.1,5.7 2.7,4.8 3.3,4 3.8,3.3 4.1,2.9 4.4,2.4 5.1,2.6 5.9,2.8 6.8,2.9 7,3.8 c 0.3,1 0.5,2.1 0.5,3.2 0.1,2.8 0.1,5.7 0,8.5 z"
   id="path16" />
</g>
</svg>
